svgs/duotone/keyboard.svg

<svg xmlns="http://www.w3.org/2000/svg" viewBox="0 0 576 512"><!--! Font Awesome Pro 6.0.0-alpha3 by @fontawesome - https://fontawesome.com License - https://fontawesome.com/license (Commercial License) --><defs><style>.fa-secondary{opacity:.4}</style></defs><path class="fa-primary" d="M128 180v-40C128 133.4 122.6 128 116 128h-40C69.38 128 64 133.4 64 140v40C64 186.6 69.38 192 76 192h40C122.6 192 128 186.6 128 180zM224 180v-40C224 133.4 218.6 128 212 128h-40C165.4 128 160 133.4 160 140v40C160 186.6 165.4 192 172 192h40C218.6 192 224 186.6 224 180zM320 180v-40C320 133.4 314.6 128 308 128h-40C261.4 128 256 133.4 256 140v40C256 186.6 261.4 192 268 192h40C314.6 192 320 186.6 320 180zM416 180v-40C416 133.4 410.6 128 404 128h-40C357.4 128 352 133.4 352 140v40C352 186.6 357.4 192 364 192h40C410.6 192 416 186.6 416 180zM512 180v-40C512 133.4 506.6 128 500 128h-40C453.4 128 448 133.4 448 140v40C448 186.6 453.4 192 460 192h40C506.6 192 512 186.6 512 180zM176 276v-40C176 229.4 170.6 224 164 224h-40C117.4 224 112 229.4 112 236v40C112 282.6 117.4 288 124 288h40C170.6 288 176 282.6 176 276zM272 276v-40C272 229.4 266.6 224 260 224h-40C213.4 224 208 229.4 208 236v40C208 282.6 213.4 288 220 288h40C266.6 288 272 282.6 272 276zM368 276v-40C368 229.4 362.6 224 356 224h-40C309.4 224 304 229.4 304 236v40C304 282.6 309.4 288 316 288h40C362.6 288 368 282.6 368 276zM464 276v-40C464 229.4 458.6 224 452 224h-40C405.4 224 400 229.4 400 236v40C400 282.6 405.4 288 412 288h40C458.6 288 464 282.6 464 276zM128 372v-40C128 325.4 122.6 320 116 320h-40C69.38 320 64 325.4 64 332v40C64 378.6 69.38 384 76 384h40C122.6 384 128 378.6 128 372zM512 372v-40C512 325.4 506.6 320 500 320h-40C453.4 320 448 325.4 448 332v40C448 378.6 453.4 384 460 384h40C506.6 384 512 378.6 512 372z"/><path class="fa-secondary" d="M512 448H64c-35.35 0-64-28.65-64-64V128c0-35.35 28.65-64 64-64h448c35.35 0 64 28.65 64 64v256C576 419.3 547.3 448 512 448zM128 180v-40C128 133.4 122.6 128 116 128h-40C69.38 128 64 133.4 64 140v40C64 186.6 69.38 192 76 192h40C122.6 192 128 186.6 128 180zM224 180v-40C224 133.4 218.6 128 212 128h-40C165.4 128 160 133.4 160 140v40C160 186.6 165.4 192 172 192h40C218.6 192 224 186.6 224 180zM320 180v-40C320 133.4 314.6 128 308 128h-40C261.4 128 256 133.4 256 140v40C256 186.6 261.4 192 268 192h40C314.6 192 320 186.6 320 180zM416 180v-40C416 133.4 410.6 128 404 128h-40C357.4 128 352 133.4 352 140v40C352 186.6 357.4 192 364 192h40C410.6 192 416 186.6 416 180zM512 180v-40C512 133.4 506.6 128 500 128h-40C453.4 128 448 133.4 448 140v40C448 186.6 453.4 192 460 192h40C506.6 192 512 186.6 512 180zM176 276v-40C176 229.4 170.6 224 164 224h-40C117.4 224 112 229.4 112 236v40C112 282.6 117.4 288 124 288h40C170.6 288 176 282.6 176 276zM272 276v-40C272 229.4 266.6 224 260 224h-40C213.4 224 208 229.4 208 236v40C208 282.6 213.4 288 220 288h40C266.6 288 272 282.6 272 276zM368 276v-40C368 229.4 362.6 224 356 224h-40C309.4 224 304 229.4 304 236v40C304 282.6 309.4 288 316 288h40C362.6 288 368 282.6 368 276zM464 276v-40C464 229.4 458.6 224 452 224h-40C405.4 224 400 229.4 400 236v40C400 282.6 405.4 288 412 288h40C458.6 288 464 282.6 464 276zM128 372v-40C128 325.4 122.6 320 116 320h-40C69.38 320 64 325.4 64 332v40C64 378.6 69.38 384 76 384h40C122.6 384 128 378.6 128 372zM416 372v-40C416 325.4 410.6 320 404 320h-232C165.4 320 160 325.4 160 332v40C160 378.6 165.4 384 172 384h232C410.6 384 416 378.6 416 372zM512 372v-40C512 325.4 506.6 320 500 320h-40C453.4 320 448 325.4 448 332v40C448 378.6 453.4 384 460 384h40C506.6 384 512 378.6 512 372z"/></svg>

<svg xmlns="http://www.w3.org/2000/svg" viewBox="0 0 576 512"><!-- Font Awesome Pro 5.15.3 by @fontawesome - https://fontawesome.com License - https://fontawesome.com/license (Commercial License) --><defs><style>.fa-secondary{opacity:.4}</style></defs><path d="M528 64H48a48 48 0 0 0-48 48v288a48 48 0 0 0 48 48h480a48 48 0 0 0 48-48V112a48 48 0 0 0-48-48zm-176 76a12 12 0 0 1 12-12h40a12 12 0 0 1 12 12v40a12 12 0 0 1-12 12h-40a12 12 0 0 1-12-12zm100 84a12 12 0 0 1 12 12v40a12 12 0 0 1-12 12h-40a12 12 0 0 1-12-12v-40a12 12 0 0 1 12-12zm-84 12v40a12 12 0 0 1-12 12h-40a12 12 0 0 1-12-12v-40a12 12 0 0 1 12-12h40a12 12 0 0 1 12 12zm-112-96a12 12 0 0 1 12-12h40a12 12 0 0 1 12 12v40a12 12 0 0 1-12 12h-40a12 12 0 0 1-12-12zm16 96v40a12 12 0 0 1-12 12h-40a12 12 0 0 1-12-12v-40a12 12 0 0 1 12-12h40a12 12 0 0 1 12 12zm-112-96a12 12 0 0 1 12-12h40a12 12 0 0 1 12 12v40a12 12 0 0 1-12 12h-40a12 12 0 0 1-12-12zm16 96v40a12 12 0 0 1-12 12h-40a12 12 0 0 1-12-12v-40a12 12 0 0 1 12-12h40a12 12 0 0 1 12 12zM64 140a12 12 0 0 1 12-12h40a12 12 0 0 1 12 12v40a12 12 0 0 1-12 12H76a12 12 0 0 1-12-12zm64 232a12 12 0 0 1-12 12H76a12 12 0 0 1-12-12v-40a12 12 0 0 1 12-12h40a12 12 0 0 1 12 12zm288 0a12 12 0 0 1-12 12H172a12 12 0 0 1-12-12v-40a12 12 0 0 1 12-12h232a12 12 0 0 1 12 12zm96 0a12 12 0 0 1-12 12h-40a12 12 0 0 1-12-12v-40a12 12 0 0 1 12-12h40a12 12 0 0 1 12 12zm0-192a12 12 0 0 1-12 12h-40a12 12 0 0 1-12-12v-40a12 12 0 0 1 12-12h40a12 12 0 0 1 12 12z" class="fa-secondary"/><path d="M164 224h-40a12 12 0 0 0-12 12v40a12 12 0 0 0 12 12h40a12 12 0 0 0 12-12v-40a12 12 0 0 0-12-12zm96 0h-40a12 12 0 0 0-12 12v40a12 12 0 0 0 12 12h40a12 12 0 0 0 12-12v-40a12 12 0 0 0-12-12zm96 0h-40a12 12 0 0 0-12 12v40a12 12 0 0 0 12 12h40a12 12 0 0 0 12-12v-40a12 12 0 0 0-12-12zm108 52v-40a12 12 0 0 0-12-12h-40a12 12 0 0 0-12 12v40a12 12 0 0 0 12 12h40a12 12 0 0 0 12-12zm36 44h-40a12 12 0 0 0-12 12v40a12 12 0 0 0 12 12h40a12 12 0 0 0 12-12v-40a12 12 0 0 0-12-12zm0-192h-40a12 12 0 0 0-12 12v40a12 12 0 0 0 12 12h40a12 12 0 0 0 12-12v-40a12 12 0 0 0-12-12zm-136 64h40a12 12 0 0 0 12-12v-40a12 12 0 0 0-12-12h-40a12 12 0 0 0-12 12v40a12 12 0 0 0 12 12zm-96 0h40a12 12 0 0 0 12-12v-40a12 12 0 0 0-12-12h-40a12 12 0 0 0-12 12v40a12 12 0 0 0 12 12zm-96 0h40a12 12 0 0 0 12-12v-40a12 12 0 0 0-12-12h-40a12 12 0 0 0-12 12v40a12 12 0 0 0 12 12zm-96 0h40a12 12 0 0 0 12-12v-40a12 12 0 0 0-12-12H76a12 12 0 0 0-12 12v40a12 12 0 0 0 12 12zm40 128H76a12 12 0 0 0-12 12v40a12 12 0 0 0 12 12h40a12 12 0 0 0 12-12v-40a12 12 0 0 0-12-12z" class="fa-primary"/></svg>
